X: 37418
T: Sliabh Aughty March, The
R: polka
M: 2/4
K: Gmajor
GA|:B2 A>B AG EG|D2 G>F GA BG|E2 c2 BA GB|A2 d>e d2 DG|
B2 A>B AG EG|D2 G>F GA BG|E2 c2 BA GF|1 G2 G>F G2 DG:|2 G2 G>F G2 GB:|
|:d2 Bd gd Bd|g2 g>f gd Bd|c2 a>b ag fe|d2 d2 d2 ef|
g2 g>f gd Bd|c2 a>b ag fe|d2 d>e fd fa|1 g2 g>f g2 Bc:|2 g2 g>f g2:|

